X:17
T:Leon Beall's Bonhomie
S:American Veteran Fifer, #17
C:By A.F. Hopkins National Fife Major.
M:2/4
L:1/16
Q:1/8=180
K:D 
%%MIDI program 72
%%MIDI transpose 8
%%MIDI ratio 3 1
|: de | f2ag e2gf | defd ecBA | d2fd B2ge | cegb ageg |
fgaf efge | defd ecBA | d2fd ebge | d2f2d2 :|
|: fg | a2fb a2fb | a2fb afed | faea fdBA | dfef gefg |
a2fb a2fb | a2fb afed | faea fdBA | d2f2d2 :|



